src/16/actions/format-join-node.svg

<svg xmlns="http://www.w3.org/2000/svg" width="16" height="16" viewBox="0 0 16 16">
 <defs>
  <style id="current-color-scheme" type="text/css">
   .ColorScheme-Text { color:#565656; } .ColorScheme-Highlight { color:#5294e2; }
  </style>
 </defs>
 <path style="fill:currentColor" class="ColorScheme-Text" d="M 1 1.0039062 L 1 6.0039062 L 6 6.0039062 L 6 4.0039062 L 7 4.0039062 L 7 3.0039062 L 6 3.0039062 L 6 1.0039062 L 1 1.0039062 z M 10 1.0039062 L 10 3.0039062 L 9 3.0039062 L 9 4.0039062 L 10 4.0039062 L 10 6.0039062 L 15 6.0039062 L 15 1.0039062 L 10 1.0039062 z M 6 7.0039062 L 8 10.003906 L 10 7.0039062 L 6 7.0039062 z M 1 10.003906 L 1 15.003906 L 6 15.003906 L 6 13.003906 L 10 13.003906 L 10 15.003906 L 15 15.003906 L 15 10.003906 L 10 10.003906 L 10 12.003906 L 6 12.003906 L 6 10.003906 L 1 10.003906 z"/>
</svg>

<svg xmlns="http://www.w3.org/2000/svg" width="16" height="16"><defs><style id="current-color-scheme" type="text/css"></style></defs><path d="M1 1.004v5h5v-2h1v-1H6v-2H1zm9 0v2H9v1h1v2h5v-5h-5zm-4 6l2 3 2-3H6zm-5 3v5h5v-2h4v2h5v-5h-5v2H6v-2H1z" fill="currentColor" color="#565656"/></svg>
